assets/pick-img.svg

<svg width="650" height="499" viewBox="0 0 650 499" fill="none" xmlns="http://www.w3.org/2000/svg">
<path d="M309.717 285.545C310.36 250.83 339.086 223.21 373.873 223.852C379.599 223.96 385.117 224.839 390.357 226.358C397.902 190.804 429.842 164.438 467.606 165.138C496.816 165.681 521.933 182.279 534.709 206.336C542.352 203.179 550.748 201.491 559.538 201.649C593.723 202.281 620.916 230.453 620.283 264.566C620.135 272.767 618.365 280.562 615.329 287.667C635.689 298.097 649.444 319.422 648.989 343.785C648.356 377.899 620.125 405.035 585.94 404.404C580.176 404.295 574.618 403.397 569.358 401.828L568.942 402.233L461.445 444.141L413.823 402.233L413.249 401.759C410.53 402.065 407.771 402.203 404.963 402.154C371.569 401.532 344.742 375.096 343.219 342.266C322.928 331.51 309.272 310.047 309.727 285.555L309.717 285.545Z" fill="#BBCBB6" stroke="#1B2E3F" stroke-miterlimit="10" stroke-linecap="round"/>
<path d="M440.809 436.217L413.824 402.233H568.943L541.958 436.217C541.958 436.217 568.943 444.141 568.943 467.903C568.943 491.665 548.306 498 548.306 498H434.461C434.461 498 413.824 491.665 413.824 467.903C413.824 444.141 440.809 436.217 440.809 436.217Z" fill="#505050" stroke="#1B2E3F" stroke-miterlimit="10"/>
<path d="M488.432 402.233V321.109" stroke="#1B2E3F" stroke-miterlimit="10" stroke-linecap="round"/>
<path d="M464.225 402.232L445.18 333.118" stroke="#1B2E3F" stroke-miterlimit="10" stroke-linecap="round"/>
<path d="M516.998 402.233L532.879 338.269" stroke="#1B2E3F" stroke-miterlimit="10" stroke-linecap="round"/>
<path d="M445.18 402.233L432.345 384.204" stroke="#1B2E3F" stroke-miterlimit="10" stroke-linecap="round"/>
<path d="M537.112 402.233L550.076 387.441" stroke="#1B2E3F" stroke-miterlimit="10" stroke-linecap="round"/>
<path d="M229.187 159.237L252.998 245.206H72.831L108.548 148.975L229.187 159.237Z" fill="#1B2E3F"/>
<path d="M444.278 122.312C444.278 122.312 434.518 129.93 421.802 127.177C409.095 124.424 376.582 80.8965 386.866 75.9922C397.15 71.0879 405.901 68.5814 405.901 68.5814C405.901 68.5814 455.462 67.9894 459.13 85.6528C462.799 103.316 444.278 122.322 444.278 122.322V122.312Z" fill="#E7D8C9" stroke="#1B2E3F" stroke-miterlimit="10" stroke-linecap="round"/>
<path d="M461.605 106.77C465.807 116.667 462.534 128.459 447.593 128.607C432.651 128.755 428.419 121.206 427.727 113.49C427.035 105.773 439.613 101.737 439.613 101.737" fill="#E7D8C9"/>
<path d="M461.605 106.77C465.807 116.667 462.534 128.459 447.593 128.607C432.651 128.755 428.419 121.206 427.727 113.49C427.035 105.773 439.613 101.737 439.613 101.737" stroke="#1B2E3F" stroke-miterlimit="10" stroke-linecap="round"/>
<path d="M464.847 83.2646C469.02 90.1425 473.43 99.6749 457.223 109.918C441.016 120.16 432.591 111.141 428.537 101.599C424.483 92.0569 433.303 89.807 433.303 89.807" fill="#E7D8C9"/>
<path d="M464.847 83.2646C469.02 90.1425 473.43 99.6749 457.223 109.918C441.016 120.16 432.591 111.141 428.537 101.599C424.483 92.0569 433.303 89.807 433.303 89.807" stroke="#1B2E3F" stroke-miterlimit="10" stroke-linecap="round"/>
<path d="M398.515 70.6536C398.515 70.6536 432.917 73.7915 455.334 60.5687C477.751 47.3556 484.515 42.9052 491.605 52.1317C498.695 61.3581 475.764 81.3108 454.256 87.2019" fill="#E7D8C9"/>
<path d="M398.515 70.6536C398.515 70.6536 432.917 73.7916 455.334 60.5687C477.751 47.3556 484.515 42.9052 491.605 52.1317C498.695 61.3581 475.764 81.3108 454.256 87.2019" stroke="#1B2E3F" stroke-miterlimit="10" stroke-linecap="round"/>
<path d="M392.791 73.2587C405.893 68.5814 414.259 47.8885 433.145 66.0355C452.032 84.1824 432.137 107.313 416.335 82.347" fill="#E7D8C9"/>
<path d="M392.791 73.2587C405.893 68.5814 414.259 47.8885 433.145 66.0355C452.032 84.1824 432.137 107.313 416.335 82.347" stroke="#1B2E3F" stroke-miterlimit="10" stroke-linecap="round"/>
<path d="M156.715 77.5216C135.263 77.5216 117.873 60.1678 117.873 38.7607C117.873 17.3537 135.263 -0.00012207 156.715 -0.00012207C178.167 -0.00012207 195.557 17.3537 195.557 38.7607C195.557 60.1678 178.167 77.5216 156.715 77.5216Z" fill="#1B2E3F"/>
<path d="M177.201 73.8113C174.87 73.8113 172.979 71.9248 172.979 69.5977C172.979 67.2706 174.87 65.3842 177.201 65.3842C179.533 65.3842 181.424 67.2706 181.424 69.5977C181.424 71.9248 179.533 73.8113 177.201 73.8113Z" fill="#6D6460" stroke="#1B2E3F" stroke-miterlimit="10" stroke-linecap="round"/>
<path d="M186.626 96.606C178.666 96.606 172.218 90.1919 172.218 82.268C172.218 74.3442 178.666 67.9301 186.626 67.9301C194.586 67.9301 201.033 74.3442 201.033 82.268C201.033 90.1919 194.576 96.606 186.626 96.606Z" fill="#E7D8C9" stroke="#1B2E3F" stroke-miterlimit="10" stroke-linecap="round"/>
<path d="M188.367 96.4975V108.852H168.323L172.209 82.2681L188.367 96.4975Z" fill="#E7D8C9"/>
<path d="M172.209 82.2681L168.323 108.852H188.367V96.4975" stroke="#1B2E3F" stroke-miterlimit="10" stroke-linecap="round"/>
<path d="M77.9532 270.684L138.075 234.953L138.154 235.081C130.035 221.187 122.056 196.232 127.514 187.153C130.827 181.647 145.778 175.637 177.015 176.822C324.195 182.377 420.112 133.729 424.127 131.647L391.93 69.647L392.039 69.5977C391.208 70.022 307.315 111.862 179.665 107.046C123.954 104.944 86.1507 119.904 67.333 151.54C37.9842 200.86 73.7802 263.688 77.9532 270.684Z" fill="#6D6460" stroke="#1B2E3F" stroke-miterlimit="10" stroke-linecap="round"/>
<path d="M186.627 67.9399C189.386 67.9399 191.957 68.7195 194.143 70.0615C191.255 76.8013 186.004 82.1792 178.39 84.2515C176.462 84.6955 174.484 84.9817 172.497 85.1198C172.309 84.2021 172.21 83.2548 172.21 82.2779C172.21 74.3639 178.657 67.9399 186.617 67.9399H186.627Z" fill="#1B2E3F"/>
<path d="M1.00098 245.206H395.855V276.891H1.00098V245.206Z" fill="#505050" stroke="#1B2E3F" stroke-miterlimit="10"/>
<path d="M20.1844 276.891H376.682V498H20.1844V276.891Z" fill="#505050" stroke="#1B2E3F" stroke-miterlimit="10"/>
<path d="M1.00098 498H637.904" stroke="#1B2E3F" stroke-miterlimit="10" stroke-linecap="round"/>
<path d="M201.608 200.13L294.846 221.089C300.433 222.342 304.398 227.296 304.398 232.999C304.398 239.739 298.92 245.216 292.157 245.216H201.608V200.139V200.13Z" fill="#E7D8C9" stroke="#1B2E3F" stroke-miterlimit="10" stroke-linecap="round"/>
<path d="M255.173 215.957L277.965 221.079C283.552 222.332 287.518 227.286 287.518 232.989C287.518 239.729 282.039 245.206 275.276 245.206" fill="#E7D8C9"/>
<path d="M255.173 215.957L277.965 221.079C283.552 222.332 287.518 227.286 287.518 232.989C287.518 239.729 282.039 245.206 275.276 245.206" stroke="#1B2E3F" stroke-miterlimit="10" stroke-linecap="round"/>
<path d="M65.8798 245.206H207.363V184.617H109.339" fill="#6D6460"/>
<path d="M65.8798 245.206H207.363V184.617H109.339" stroke="#1B2E3F" stroke-miterlimit="10" stroke-linecap="round"/>
</svg>

<svg width="650" height="499" fill="none" xmlns="http://www.w3.org/2000/svg"><path d="M309.717 285.545c.643-34.715 29.369-62.335 64.156-61.693a63.39 63.39 0 0 1 16.484 2.506c7.545-35.554 39.485-61.92 77.249-61.22 29.21.543 54.327 17.141 67.103 41.198a61.963 61.963 0 0 1 24.829-4.687c34.185.632 61.378 28.804 60.745 62.917a61.493 61.493 0 0 1-4.954 23.101c20.36 10.43 34.115 31.755 33.66 56.118-.633 34.114-28.864 61.25-63.049 60.619a62.027 62.027 0 0 1-16.582-2.576l-.416.405-107.497 41.908-47.622-41.908-.574-.474a63.988 63.988 0 0 1-8.286.395c-33.394-.622-60.221-27.058-61.744-59.888-20.291-10.756-33.947-32.219-33.492-56.711l-.01-.01Z" fill="#BBCBB6" stroke="#1B2E3F" stroke-miterlimit="10" stroke-linecap="round"/><path d="m440.809 436.217-26.985-33.984h155.119l-26.985 33.984s26.985 7.924 26.985 31.686S548.306 498 548.306 498H434.461s-20.637-6.335-20.637-30.097 26.985-31.686 26.985-31.686Z" fill="#505050" stroke="#1B2E3F" stroke-miterlimit="10"/><path d="M488.432 402.233v-81.124m-24.207 81.123-19.045-69.114m71.818 69.115 15.881-63.964m-87.699 63.964-12.835-18.029m104.767 18.029 12.964-14.792" stroke="#1B2E3F" stroke-miterlimit="10" stroke-linecap="round"/><path d="m229.187 159.237 23.811 85.969H72.831l35.717-96.231 120.639 10.262Z" fill="#1B2E3F"/><path d="M444.278 122.312s-9.76 7.618-22.476 4.865c-12.707-2.753-45.22-46.28-34.936-51.185 10.284-4.904 19.035-7.41 19.035-7.41s49.561-.593 53.229 17.07c3.669 17.664-14.852 36.67-14.852 36.67v-.01Z" fill="#E7D8C9" stroke="#1B2E3F" stroke-miterlimit="10" stroke-linecap="round"/><path d="M461.605 106.77c4.202 9.897.929 21.689-14.012 21.837-14.942.148-19.174-7.401-19.866-15.117-.692-7.717 11.886-11.753 11.886-11.753" fill="#E7D8C9"/><path d="M461.605 106.77c4.202 9.897.929 21.689-14.012 21.837-14.942.148-19.174-7.401-19.866-15.117-.692-7.717 11.886-11.753 11.886-11.753" stroke="#1B2E3F" stroke-miterlimit="10" stroke-linecap="round"/><path d="M464.847 83.265c4.173 6.877 8.583 16.41-7.624 26.653-16.207 10.242-24.632 1.223-28.686-8.319-4.054-9.542 4.766-11.792 4.766-11.792" fill="#E7D8C9"/><path d="M464.847 83.265c4.173 6.877 8.583 16.41-7.624 26.653-16.207 10.242-24.632 1.223-28.686-8.319-4.054-9.542 4.766-11.792 4.766-11.792" stroke="#1B2E3F" stroke-miterlimit="10" stroke-linecap="round"/><path d="M398.515 70.654s34.402 3.138 56.819-10.085c22.417-13.213 29.181-17.664 36.271-8.437 7.09 9.226-15.841 29.179-37.349 35.07" fill="#E7D8C9"/><path d="M398.515 70.654s34.402 3.138 56.819-10.085c22.417-13.213 29.181-17.664 36.271-8.437 7.09 9.226-15.841 29.179-37.349 35.07" stroke="#1B2E3F" stroke-miterlimit="10" stroke-linecap="round"/><path d="M392.791 73.259c13.102-4.678 21.468-25.37 40.354-7.224 18.887 18.147-1.008 41.278-16.81 16.312" fill="#E7D8C9"/><path d="M392.791 73.259c13.102-4.678 21.468-25.37 40.354-7.224 18.887 18.147-1.008 41.278-16.81 16.312" stroke="#1B2E3F" stroke-miterlimit="10" stroke-linecap="round"/><path d="M156.715 77.522c-21.452 0-38.842-17.354-38.842-38.761C117.873 17.354 135.263 0 156.715 0c21.452 0 38.842 17.354 38.842 38.76 0 21.408-17.39 38.762-38.842 38.762Z" fill="#1B2E3F"/><path d="M177.201 73.811a4.218 4.218 0 0 1-4.222-4.213 4.218 4.218 0 0 1 4.222-4.214 4.218 4.218 0 0 1 4.223 4.214 4.219 4.219 0 0 1-4.223 4.213Z" fill="#6D6460" stroke="#1B2E3F" stroke-miterlimit="10" stroke-linecap="round"/><path d="M186.626 96.606c-7.96 0-14.408-6.414-14.408-14.338 0-7.924 6.448-14.338 14.408-14.338 7.96 0 14.407 6.414 14.407 14.338 0 7.924-6.457 14.338-14.407 14.338Z" fill="#E7D8C9" stroke="#1B2E3F" stroke-miterlimit="10" stroke-linecap="round"/><path d="M188.367 96.498v12.354h-20.044l3.886-26.584 16.158 14.23Z" fill="#E7D8C9"/><path d="m172.209 82.268-3.886 26.584h20.044V96.497" stroke="#1B2E3F" stroke-miterlimit="10" stroke-linecap="round"/><path d="m77.953 270.684 60.122-35.731.079.128c-8.119-13.894-16.098-38.849-10.64-47.928 3.313-5.506 18.264-11.516 49.501-10.331 147.18 5.555 243.097-43.093 247.112-45.175l-32.197-62 .109-.05c-.831.425-84.724 42.265-212.374 37.449-55.711-2.102-93.514 12.858-112.332 44.494-29.349 49.32 6.447 112.148 10.62 119.144Z" fill="#6D6460" stroke="#1B2E3F" stroke-miterlimit="10" stroke-linecap="round"/><path d="M186.627 67.94c2.759 0 5.33.78 7.516 2.121-2.888 6.74-8.139 12.118-15.753 14.19a38.06 38.06 0 0 1-5.893.869 14.126 14.126 0 0 1-.287-2.842c0-7.914 6.447-14.338 14.407-14.338h.01Z" fill="#1B2E3F"/><path d="M1.001 245.206h394.854v31.685H1.001v-31.685Zm19.183 31.685h356.498V498H20.184V276.891Z" fill="#505050" stroke="#1B2E3F" stroke-miterlimit="10"/><path d="M1.001 498h636.903" stroke="#1B2E3F" stroke-miterlimit="10" stroke-linecap="round"/><path d="m201.608 200.13 93.238 20.959c5.587 1.253 9.552 6.207 9.552 11.91 0 6.74-5.478 12.217-12.241 12.217h-90.549V200.13Z" fill="#E7D8C9" stroke="#1B2E3F" stroke-miterlimit="10" stroke-linecap="round"/><path d="m255.173 215.957 22.792 5.122c5.587 1.253 9.553 6.207 9.553 11.91 0 6.74-5.479 12.217-12.242 12.217" fill="#E7D8C9"/><path d="m255.173 215.957 22.792 5.122c5.587 1.253 9.553 6.207 9.553 11.91 0 6.74-5.479 12.217-12.242 12.217" stroke="#1B2E3F" stroke-miterlimit="10" stroke-linecap="round"/><path d="M65.88 245.206h141.483v-60.589h-98.024" fill="#6D6460"/><path d="M65.88 245.206h141.483v-60.589h-98.024" stroke="#1B2E3F" stroke-miterlimit="10" stroke-linecap="round"/></svg>
